img/icon/icon_4.svg

<svg height="43" width="43" xmlns="http://www.w3.org/2000/svg"><path d="m14.648 29.469c.156.156.245.373.245.594 0 .222-.089.438-.245.595-.157.157-.374.246-.595.246s-.437-.089-.593-.246c-.157-.157-.247-.374-.247-.595s.09-.437.247-.594c.156-.157.372-.247.593-.247s.438.09.595.247zm27.319-3.108-8.235 8.241h6.747c1.389 0 2.52 1.132 2.52 2.522s-1.131 2.521-2.52 2.521h-3.752l1.559 1.991c.198.253.235.597.094.886-.14.289-.434.473-.755.473h-3.443c-.199 0-.392-.071-.544-.2l-3.709-3.15h-16.858l-3.709 3.15c-.151.129-.344.2-.543.2h-3.443c-.322 0-.615-.184-.756-.473-.14-.289-.104-.633.095-.886l1.559-1.991h-3.755c-1.389 0-2.519-1.131-2.519-2.521 0-.796.37-1.506.947-1.968-.587-.631-.946-1.475-.946-2.403 0-1.947 1.582-3.53 3.527-3.53h6.802c.464 0 .84.376.84.84 0 .465-.376.841-.84.841h-6.802c-1.019 0-1.848.83-1.848 1.849 0 1.02.829 1.849 1.848 1.849h27.064c.493 0 .957-.192 1.306-.541l8.881-8.889c.349-.349.541-.814.541-1.307 0-.494-.192-.958-.541-1.308-.349-.349-.813-.542-1.306-.542-.494 0-.958.193-1.307.542l-8.094 8.101c-.157.157-.371.246-.594.246h-12.205c-.464 0-.84-.376-.84-.841 0-.464.376-.84.84-.84h11.586l-7.871-13.718-4.493 2.595c-.018.013-.036.025-.056.037-.015.008-.03.015-.045.022l-6.392 3.693c-.129.075-.274.113-.42.113-.073 0-.146-.009-.218-.029-.215-.057-.398-.198-.509-.392-3.818-6.62-1.758-15.049 4.545-19.195l-.259-.449c-.232-.402-.095-.917.307-1.148.402-.233.915-.095 1.147.307l.26.449c6.739-3.39 15.062-.96 18.883 5.659.111.192.141.422.084.637-.058.216-.199.4-.392.511l-6.378 3.685c-.018.013-.036.025-.056.036-.019.012-.039.021-.059.031l-4.495 2.597 7.746 13.5 6.791-6.795c.666-.667 1.552-1.035 2.494-1.035s1.828.368 2.494 1.035 1.033 1.553 1.033 2.496-.367 1.829-1.033 2.496zm-7.477 14.953h1.409l-1.307-1.669h-2.067zm-25.979 0 1.964-1.669h-2.067l-1.307 1.669zm-5.992-5.03c-.463 0-.84.376-.84.84 0 .463.377.84.84.84h37.96c.463 0 .84-.377.84-.84 0-.464-.377-.84-.84-.84zm9.429-27.972c-.092-.925-.09-1.774.002-2.538-3.46 3.779-4.384 9.421-2.037 14.188l4.967-2.87c-1.627-3.004-2.662-6.095-2.932-8.78zm19.891-1.019c-2.418-3.618-6.44-5.629-10.563-5.629-.911 0-1.827.1-2.732.3.707.303 1.442.725 2.196 1.268 2.189 1.576 4.346 4.019 6.132 6.931zm-6.422 3.711c-1.666-2.708-3.655-4.965-5.658-6.408-1.526-1.099-2.924-1.614-3.984-1.492l3.205 5.555c.232.402.094.916-.308 1.149-.132.076-.276.112-.419.112-.29 0-.572-.15-.728-.42l-3.204-5.555c-.636.857-.889 2.326-.701 4.198.246 2.458 1.205 5.31 2.716 8.109zm-5.631-.085c.221 0 .438.089.594.245.156.157.246.373.246.595 0 .221-.09.438-.246.594-.156.157-.373.247-.594.247s-.437-.09-.594-.247c-.156-.156-.246-.373-.246-.594 0-.222.09-.438.246-.595.157-.156.373-.245.594-.245z" fill="#fff" fill-rule="evenodd"/></svg>

<svg 
 xmlns="http://www.w3.org/2000/svg"
 xmlns:xlink="http://www.w3.org/1999/xlink"
 width="43px" height="43px">
<path fill-rule="evenodd"  fill="rgb(255, 255, 255)"
 d="M14.648,29.469 C14.804,29.625 14.893,29.842 14.893,30.063 C14.893,30.285 14.804,30.501 14.648,30.658 C14.491,30.815 14.274,30.904 14.053,30.904 C13.832,30.904 13.616,30.815 13.460,30.658 C13.303,30.501 13.213,30.284 13.213,30.063 C13.213,29.842 13.303,29.626 13.460,29.469 C13.616,29.312 13.832,29.222 14.053,29.222 C14.274,29.222 14.491,29.312 14.648,29.469 ZM41.967,26.361 L33.732,34.602 L40.479,34.602 C41.868,34.602 42.999,35.734 42.999,37.124 C42.999,38.514 41.868,39.645 40.479,39.645 L36.727,39.645 L38.286,41.636 C38.484,41.889 38.521,42.233 38.380,42.522 C38.240,42.811 37.946,42.995 37.625,42.995 L34.182,42.995 C33.983,42.995 33.790,42.924 33.638,42.795 L29.929,39.645 L13.071,39.645 L9.362,42.795 C9.211,42.924 9.018,42.995 8.819,42.995 L5.376,42.995 C5.054,42.995 4.761,42.811 4.620,42.522 C4.480,42.233 4.516,41.889 4.715,41.636 L6.274,39.645 L2.519,39.645 C1.130,39.645 -0.000,38.514 -0.000,37.124 C-0.000,36.328 0.370,35.618 0.947,35.156 C0.360,34.525 0.001,33.681 0.001,32.753 C0.001,30.806 1.583,29.223 3.528,29.223 L10.330,29.223 C10.794,29.223 11.170,29.599 11.170,30.063 C11.170,30.528 10.794,30.904 10.330,30.904 L3.528,30.904 C2.509,30.904 1.680,31.734 1.680,32.753 C1.680,33.773 2.509,34.602 3.528,34.602 L30.592,34.602 C31.085,34.602 31.549,34.410 31.898,34.061 L40.779,25.172 C41.128,24.823 41.320,24.358 41.320,23.865 C41.320,23.371 41.128,22.907 40.779,22.557 C40.430,22.208 39.966,22.015 39.473,22.015 C38.979,22.015 38.515,22.208 38.166,22.557 L30.072,30.658 C29.915,30.815 29.701,30.904 29.478,30.904 L17.273,30.904 C16.809,30.904 16.433,30.528 16.433,30.063 C16.433,29.599 16.809,29.223 17.273,29.223 L28.859,29.223 L20.988,15.505 L16.495,18.100 C16.477,18.113 16.459,18.125 16.439,18.137 C16.424,18.145 16.409,18.152 16.394,18.159 L10.002,21.852 C9.873,21.927 9.728,21.965 9.582,21.965 C9.509,21.965 9.436,21.956 9.364,21.936 C9.149,21.879 8.966,21.738 8.855,21.544 C5.037,14.924 7.097,6.495 13.400,2.349 L13.141,1.900 C12.909,1.498 13.046,0.983 13.448,0.752 C13.850,0.519 14.363,0.657 14.595,1.059 L14.855,1.508 C21.594,-1.882 29.917,0.548 33.738,7.167 C33.849,7.359 33.879,7.589 33.822,7.804 C33.764,8.020 33.623,8.204 33.430,8.315 L27.052,12.000 C27.034,12.013 27.016,12.025 26.996,12.036 C26.977,12.048 26.957,12.057 26.937,12.067 L22.442,14.664 L30.188,28.164 L36.979,21.369 C37.645,20.702 38.531,20.334 39.473,20.334 C40.415,20.334 41.301,20.702 41.967,21.369 C42.633,22.036 43.000,22.922 43.000,23.865 C43.000,24.808 42.633,25.694 41.967,26.361 ZM34.490,41.314 L35.899,41.314 L34.592,39.645 L32.525,39.645 L34.490,41.314 ZM8.511,41.314 L10.475,39.645 L8.408,39.645 L7.101,41.314 L8.511,41.314 ZM2.519,36.284 C2.056,36.284 1.679,36.660 1.679,37.124 C1.679,37.587 2.056,37.964 2.519,37.964 L40.479,37.964 C40.942,37.964 41.319,37.587 41.319,37.124 C41.319,36.660 40.942,36.284 40.479,36.284 L2.519,36.284 ZM11.948,8.312 C11.856,7.387 11.858,6.538 11.950,5.774 C8.490,9.553 7.566,15.195 9.913,19.962 L14.880,17.092 C13.253,14.088 12.218,10.997 11.948,8.312 ZM31.839,7.293 C29.421,3.675 25.399,1.664 21.276,1.664 C20.365,1.664 19.449,1.764 18.544,1.964 C19.251,2.267 19.986,2.689 20.740,3.232 C22.929,4.808 25.086,7.251 26.872,10.163 L31.839,7.293 ZM25.417,11.004 C23.751,8.296 21.762,6.039 19.759,4.596 C18.233,3.497 16.835,2.982 15.775,3.104 L18.980,8.659 C19.212,9.061 19.074,9.575 18.672,9.808 C18.540,9.884 18.396,9.920 18.253,9.920 C17.963,9.920 17.681,9.770 17.525,9.500 L14.321,3.945 C13.685,4.802 13.432,6.271 13.620,8.143 C13.866,10.601 14.825,13.453 16.336,16.252 L25.417,11.004 ZM19.786,10.919 C20.007,10.919 20.224,11.008 20.380,11.164 C20.536,11.321 20.626,11.537 20.626,11.759 C20.626,11.980 20.536,12.197 20.380,12.353 C20.224,12.510 20.007,12.600 19.786,12.600 C19.565,12.600 19.349,12.510 19.192,12.353 C19.036,12.197 18.946,11.980 18.946,11.759 C18.946,11.537 19.036,11.321 19.192,11.164 C19.349,11.008 19.565,10.919 19.786,10.919 Z"/>
</svg>
